src/Images/LOGO.svg

<svg fill="none" height="68" viewBox="0 0 211 68" width="211" xmlns="http://www.w3.org/2000/svg"><g fill="#ff6060"><path d="m20.5745 34.6485-11.23436 11.4877v16.1199h-8.84014v-62.2561h8.84014v34.8338l33.51886-34.8338h10.1293l-26.3362 27.9782 28.1779 34.2779h-10.3135z"/><path d="m119.289 57.2534 3.5-6.6703c4.051 2.7793 10.313 4.8174 16.391 4.8174 7.919 0 11.05-2.4087 11.05-6.485 0-10.5613-29.652-1.4823-29.652-20.1962 0-8.5231 7.551-14.0817 19.522-14.0817 6.078 0 13.076 1.6675 17.128 4.2616l-3.683 6.6703c-4.236-2.7793-8.84-3.7058-13.445-3.7058-7.366 0-11.05 2.7793-11.05 6.485 0 11.1172 29.652 2.0382 29.652 20.3815 0 8.5232-7.736 13.8965-20.259 13.8965-7.551.1853-15.286-2.2235-19.154-5.3733z"/><path d="m210.822 33.7221v28.534h-8.104v-6.2997c-2.762 4.2616-8.103 6.6703-15.47 6.6703-10.682 0-17.312-5.7439-17.312-13.8964 0-7.5968 4.788-13.7112 18.785-13.7112h13.445v-1.6676c0-7.2261-4.236-11.3024-12.524-11.3024-5.525 0-11.234 2.0381-14.918 5.0027l-3.499-6.485c4.789-3.891 11.787-6.1145 19.338-6.1145 13.076.1853 20.259 6.485 20.259 19.2698zm-8.472 14.0817v-6.6703h-13.076c-8.472 0-10.866 3.3352-10.866 7.2262 0 4.6321 3.867 7.5967 10.313 7.5967 6.446.1853 11.603-2.594 13.629-8.1526z"/><path d="m92.0322 49.8419v12.5995l5.3409-3.1499v-12.5994z"/><path d="m106.766 34.4632-21.9164-12.7848-12.1552-7.0408-11.971 20.9373.1842 19.6403 21.732 12.7848 2.21-1.297v-18.5286l9.761-17.2316 9.9454 5.7438v18.5286l2.21-1.297z"/></g></svg>

<svg width="211" height="68" viewBox="0 0 211 68" fill="none" xmlns="http://www.w3.org/2000/svg">
<path d="M20.5745 34.6485L9.34014 46.1362V62.2561H0.5V0H9.34014V34.8338L42.859 0H52.9883L26.6521 27.9782L54.83 62.2561H44.5165L20.5745 34.6485Z" fill="#FF6060"/>
<path d="M119.289 57.2534L122.789 50.5831C126.84 53.3624 133.102 55.4005 139.18 55.4005C147.099 55.4005 150.23 52.9918 150.23 48.9155C150.23 38.3542 120.578 47.4332 120.578 28.7193C120.578 20.1962 128.129 14.6376 140.1 14.6376C146.178 14.6376 153.176 16.3051 157.228 18.8992L153.545 25.5695C149.309 22.7902 144.705 21.8637 140.1 21.8637C132.734 21.8637 129.05 24.643 129.05 28.3487C129.05 39.4659 158.702 30.3869 158.702 48.7302C158.702 57.2534 150.966 62.6267 138.443 62.6267C130.892 62.812 123.157 60.4032 119.289 57.2534Z" fill="#FF6060"/>
<path d="M210.822 33.7221V62.2561H202.718V55.9564C199.956 60.218 194.615 62.6267 187.248 62.6267C176.566 62.6267 169.936 56.8828 169.936 48.7303C169.936 41.1335 174.724 35.0191 188.721 35.0191H202.166V33.3515C202.166 26.1254 197.93 22.0491 189.642 22.0491C184.117 22.0491 178.408 24.0872 174.724 27.0518L171.225 20.5668C176.014 16.6758 183.012 14.4523 190.563 14.4523C203.639 14.6376 210.822 20.9373 210.822 33.7221ZM202.35 47.8038V41.1335H189.274C180.802 41.1335 178.408 44.4687 178.408 48.3597C178.408 52.9918 182.275 55.9564 188.721 55.9564C195.167 56.1417 200.324 53.3624 202.35 47.8038Z" fill="#FF6060"/>
<path d="M92.0322 49.8419V62.4414L97.3731 59.2915V46.6921L92.0322 49.8419Z" fill="#FF6060"/>
<path d="M106.766 34.4632L84.8496 21.6784L72.6944 14.6376L60.7234 35.5749L60.9076 55.2152L82.6396 68L84.8496 66.703V48.1744L94.6106 30.9428L104.556 36.6866V55.2152L106.766 53.9182V34.4632Z" fill="#FF6060"/>
</svg>
